!!! OTL: Berkowitz150
!!! Chapter: 1
!!! Section: I
!!! Page: 34
!!! Mode: 
!!! Encoder: DJB
**kern
*staff1
*I"Piano
=1-
*clefG2
*k[b-e-a-]
*c:
*M3/4
8e-/L
8f/J
4g/
4g/
=2
4a-/
4f/
4d/
=3
2g/
4f/
=4
8e-/L
8f/J
4g/
4r
=5
4a-/
4f/
4d/
=6
4g/
4an/
4bn\
=7
8cc\L
8b-\J
8a-/L
8g/J
8f/L
8e-/J
=8
4d/
4r
8c/L
8d/J
=9
8e-/L
8f/J
4g/
4g/
=10
!!linebreak:original
8a-/L
8f/J
4d/
4a-/
=11
4g/
4f/
4d/
=12
4e-/
4r
8cc\L
8b-\J
=13
8a-/L
8g/J
8f/L
8e-/J
8d/L
8c/J
=14
4d/
4f/
4a-/
=15
4g/
8f/L
8e-/J
4d/
=16
4c/
2r
==
*-
